assets/Sign of the horns/Light/Flat/sign_of_the_horns_flat_light.svg

<svg width="32" height="32" viewBox="0 0 32 32" fill="none" xmlns="http://www.w3.org/2000/svg">
<path d="M20.0312 4.5C20.0312 3.12 21.1512 2 22.5312 2C23.9112 2 25.0312 3.12 25.0312 4.5V14.9351C25.6298 15.5253 26 16.3455 26 17.25C26 20.2456 25.6019 22.8961 23.8928 25.4961C23.6068 25.9313 23.3439 26.2307 23.1013 26.4155C21.533 28.6062 19.079 30 16 30C9.40625 30 6 25.52 6 20V8.03C6 6.65 7.12 5.53 8.5 5.53C9.88 5.53 11 6.65 11 8.03V9.59965C11.4923 9.07702 12.1956 8.76562 12.9766 8.76562C13.9325 8.76562 14.7721 9.23217 15.2507 9.98158C15.3818 8.32646 16.2924 7.17188 17.5768 7.17188C18.7744 7.17188 19.7767 7.82138 20.0312 9.50616V4.5Z" fill="#FFD7C2"/>
<path d="M20.9914 5.30486L20.9928 5.27143C21.0154 4.75013 21.0504 3.94191 21.2948 3.20948C21.4563 2.72529 21.6935 2.31674 22.0516 2.04602C21.1137 2.22851 20.3625 2.93594 20.1168 3.84974C20.0755 4.10409 20.0491 4.34821 20.0312 4.56926V14H20.9914V5.30486Z" fill="#F1B99B"/>
<path d="M9.34969 11.0831C9.34969 10.1621 9.79501 9.14926 11 8.32434V9.61874C10.4975 10.1362 10.3497 10.6585 10.3497 11.0831C10.3497 11.444 10.3376 11.8444 10.3248 12.2702L10.321 12.3984C10.3068 12.8754 10.2927 13.3881 10.2927 13.9347C10.2927 14.5959 10.6242 15.436 10.9058 15.8995C11.4002 16.5243 12.1444 16.9219 12.9766 16.9219C13.6401 16.9219 14.2476 16.6692 14.7172 16.25C14.4745 15.7022 14.262 15.0351 14.262 14.2151V10.0697C14.262 9.70551 14.2914 9.38813 14.3369 9.11707C14.7068 9.32619 15.0205 9.62118 15.2507 9.98159C15.2399 10.1178 15.2344 10.2574 15.2344 10.4001V13.5255C15.2344 13.7115 15.2437 13.894 15.262 14.0719V14.2151C15.262 14.5171 15.2981 14.7932 15.3584 15.0502C15.7847 14.5515 16.372 14.1947 17.0408 14.0597C17.4548 14.0338 17.8418 14.0329 18.1694 14.0322C18.2523 14.032 18.3315 14.0318 18.4062 14.0312C18.4062 14.0312 15.8125 14.5469 15.8125 16.5C15.8125 17.9062 16.125 18.9375 19.4375 18.9375C21.9843 18.9375 23.0312 20 23.0312 21.625C23.0312 22.7952 21.4467 23.4036 20.546 23.0215C20.4615 22.6987 20.3797 22.3728 20.2992 22.0525C20.2099 21.6967 20.1222 21.3476 20.0347 21.0174C19.9152 21.0136 19.7574 21.0116 19.5678 21.0159C19.1016 21.0264 18.4466 21.0746 17.6984 21.2256C16.1991 21.5281 14.3539 22.2367 12.8856 23.8519C12.6998 24.0563 12.3836 24.0713 12.1792 23.8856C11.9749 23.6998 11.9599 23.3836 12.1456 23.1793C13.8023 21.3569 15.8692 20.5745 17.5006 20.2453C18.3079 20.0825 19.0156 20.029 19.5267 20.0166C19.4532 20 19.3879 20 19.3516 20H17.6406C16.2699 20 15.1174 19.0863 14.7573 17.8333C14.7503 17.8214 14.7435 17.8094 14.7368 17.7974C14.2684 18.4418 13.7273 19 12.2286 19C9.55724 19 9.3472 15.5467 9.3005 14.1536C9.2954 14.0801 9.29272 14.007 9.29272 13.9347L9.29274 13.9066C9.29321 13.3546 9.30742 12.8383 9.32143 12.3686L9.3252 12.2429C9.33812 11.813 9.34969 11.428 9.34969 11.0831Z" fill="#F1B99B"/>
</svg>

<svg xmlns="http://www.w3.org/2000/svg" width="32" height="32" fill="none"><path fill="#FFD7C2" d="M20.031 4.5a2.5 2.5 0 0 1 5 0v10.435c.599.59.969 1.41.969 2.315 0 2.996-.398 5.646-2.107 8.246-.286.435-.55.735-.792.92C21.533 28.606 19.08 30 16 30 9.406 30 6 25.52 6 20V8.03a2.5 2.5 0 0 1 5 0V9.6a2.694 2.694 0 0 1 1.977-.834c.955 0 1.795.466 2.274 1.216.13-1.656 1.041-2.81 2.326-2.81 1.197 0 2.2.65 2.454 2.334V4.5Z"/><path fill="#F1B99B" d="m20.991 5.305.002-.034c.022-.52.057-1.33.302-2.062.161-.484.398-.892.757-1.163-.938.183-1.69.89-1.935 1.804a9.058 9.058 0 0 0-.086.72V14h.96V5.305ZM9.35 11.083c0-.92.445-1.934 1.65-2.759V9.62c-.502.517-.65 1.04-.65 1.464 0 .361-.012.761-.025 1.187l-.004.128c-.014.477-.028.99-.028 1.537 0 .66.331 1.501.613 1.964a2.638 2.638 0 0 0 2.07 1.023c.664 0 1.272-.253 1.741-.672-.242-.548-.455-1.215-.455-2.035V10.07c0-.364.03-.682.075-.953.37.21.684.504.914.865-.011.136-.017.275-.017.418v3.125c0 .186.01.369.028.547v.143c0 .302.036.578.096.835a2.993 2.993 0 0 1 1.683-.99c.414-.026.8-.027 1.128-.028h.237s-2.593.515-2.593 2.468c0 1.406.312 2.438 3.624 2.438 2.547 0 3.594 1.062 3.594 2.687 0 1.17-1.584 1.779-2.485 1.396-.084-.322-.166-.648-.247-.969-.09-.355-.177-.704-.264-1.035a8.62 8.62 0 0 0-.467-.001c-.466.01-1.121.059-1.87.21-1.499.302-3.344 1.01-4.812 2.626a.5.5 0 0 1-.74-.673c1.656-1.822 3.723-2.604 5.355-2.934a11.79 11.79 0 0 1 2.026-.228c-.074-.017-.14-.017-.175-.017H17.64a2.997 2.997 0 0 1-2.884-2.167 1.837 1.837 0 0 1-.02-.036c-.469.645-1.01 1.203-2.508 1.203-2.672 0-2.882-3.453-2.928-4.846a3.165 3.165 0 0 1-.008-.22v-.027c0-.552.014-1.069.028-1.538l.004-.126c.013-.43.025-.815.025-1.16Z"/></svg>
